X:1
T:McAnally, CMD
T:McAnally, CMD
T:Arranged by Rigdon McCoy McIntosh (1836-1899)
T:Public Domain Courtesy of the Cyber Hymnal™
C:Arranged by Rigdon McCoy McIntosh (1836-1899)
Z:Public Domain
Z:Courtesy of the Cyber Hymnal™
%%score ( 1 2 ) ( 3 4 )
L:1/8
Q:1/4=110
M:6/8
K:Ab
V:1 treble 
V:2 treble 
V:3 bass 
V:4 bass 
V:1
 [CE] | [CA]2 [CA] [EA]2 [EB] | [EG]2 [DF] [CE]2 E | [EA]2 [EA] (AG)A | [GB]3- [GB]2 E | %5
 [Ec]2 [EB] [Ec]2 [Ed] | [Ee]2 [Ec] [CA]2 [FB] | [Ec]2 [Ed] (BA)[DG] | [CA]3- [CA]2 [Ac] | %9
 [Ae]2 [Ae] (ed)[Ac] | [Gd]2 [Gd] ([Gd][Ac])[EB] | [Ec]2 [Ed] [Ee]2 [Ec] | [EB]3- [EB]2 E | %13
 [EA]2 [EB] [Ec]2 [Ed] | [Ee]2 [Ec] [CA]2 [FB] | [Ec]2 [Ed] (BA)[EG] | [EA]3- [EA]2 |] %17
V:2
 x | x6 | x5 E | x3 E2 A | x5 E | x6 | x6 | x3 E2 x | x6 | x3 A2 x | x6 | x6 | x5 E | x6 | x6 | %15
 x3 E2 x | x5 |] %17
V:3
 [A,,A,] | [A,,A,]2 [A,,A,] [C,A,]2 [C,A,] | [D,A,]2 [D,A,] [A,,A,]2 [A,,C] | %3
 [A,,C]2 [A,,C] ([C,E][B,,D])[A,,C] | [E,E]3- [E,E]2 [E,G,] | [A,,A,]2 [A,,G,] [A,,A,]2 [A,,B,] | %6
 [A,C]2 A, A,2 [D,A,] | [E,A,]2 [E,G,] (G,A,)E, | [A,,E,]3- [A,,E,]2 A, | [A,C]2 [A,C] (CB,)A, | %10
 [E,B,]2 [E,B,] (B,A,)[E,G,] | A,2 [A,B,] [A,C]2 A, | [E,G,]3- [E,G,]2 E, | %13
 [C,A,]2 [B,,G,] [A,,A,]2 [A,,B,] | [A,C]2 A, A,2 [D,A,] | [E,A,]2 [E,G,] (DC)[E,B,] | %16
 [A,,C]3- [A,,C]2 |] %17
V:4
 x | x6 | x6 | x6 | x6 | x6 | x2 A, A,2 x | x3 E,2 E, | x5 A, | x3 A,2 A, | x3 E,2 x | %11
 A,2 x A, x2 | x5 E, | x6 | x2 A, A,2 x | x3 E,2 x | x5 |] %17

